X: 3274
T: The BELFAST BOAT
%R: jig
B: James Kerr "Merry Melodies" v.3 p.30 #274
Z: 2016 John Chambers <jc:trillian.mit.edu>
M: 6/8
L: 1/8
K: G
|:\
GBd g2g | agf efg | GBd g2g | edB A3 |\
GBd g2g | agf efg | ded cBA | BGG G3 :|
|:\
DGG BGG | dGG BAG | DGG BGG | EAA A3 |\
DGG BGG | dGG cde | ded cBA | BGG G3 :|

%%sep 1 1 500
%%sep 1 1 500

